images/logos/nike.svg

<?xml version="1.0" encoding="UTF-8"?>
<svg width="100px" height="50px" viewBox="0 0 100 50" version="1.1" xmlns="http://www.w3.org/2000/svg" xmlns:xlink="http://www.w3.org/1999/xlink">
    <!-- Generator: Sketch 59.1 (86144) - https://sketch.com -->
    <title>nike</title>
    <desc>Created with Sketch.</desc>
    <g id="Page-1" stroke="none" stroke-width="1" fill="none" fill-rule="evenodd">
        <g id="Artboard" fill="#4A4A4A" fill-rule="nonzero">
            <g id="nike">
                <path d="M22.12448,37.57152 C19.9904,37.48656 18.24368,36.90192 16.87856,35.8176 C16.61792,35.61024 15.99728,34.9896 15.78848,34.7268 C15.2348,34.03056 14.85824,33.35304 14.60768,32.60136 C13.83512,30.28728 14.23256,27.25032 15.74528,23.91816 C17.03984,21.06408 19.03784,18.23448 22.52408,14.3148 C23.03744,13.7388 24.56672,12.05184 24.57608,12.05184 C24.57968,12.05184 24.49688,12.19584 24.39176,12.37152 C23.48528,13.89 22.70984,15.67848 22.2872,17.22648 C21.60896,19.71048 21.69032,21.8424 22.52696,23.49552 C23.1044,24.63456 24.09368,25.62096 25.20608,26.16672 C27.15368,27.12072 30.00488,27.1992 33.48752,26.39712 C33.72728,26.34168 45.60728,23.18808 59.88848,19.38864 C74.16968,15.5892 85.85528,12.4824 85.85744,12.48528 C85.86176,12.4896 52.67912,26.688 35.45312,34.0536 C32.72576,35.22 31.99568,35.5152 30.71336,35.9652 C27.4352,37.11648 24.49832,37.66584 22.12448,37.5708 L22.12448,37.57152 Z" id="Path"></path>
            </g>
        </g>
    </g>
</svg>

<svg xmlns="http://www.w3.org/2000/svg" width="100" height="50"><path fill="#ffffff" fill-rule="nonzero" d="M22.124 37.572c-2.134-.085-3.88-.67-5.245-1.754-.261-.208-.882-.828-1.09-1.091-.554-.696-.93-1.374-1.181-2.126-.773-2.314-.375-5.35 1.137-8.683 1.295-2.854 3.293-5.684 6.78-9.603.512-.576 2.042-2.263 2.051-2.263.004 0-.08.144-.184.32-.907 1.518-1.682 3.306-2.105 4.854-.678 2.484-.597 4.616.24 6.27.577 1.139 1.567 2.125 2.68 2.67 1.947.955 4.798 1.033 8.28.231.24-.055 12.12-3.209 26.401-7.008 14.282-3.8 25.967-6.907 25.97-6.904.004.005-33.179 14.203-50.405 21.569-2.727 1.166-3.457 1.461-4.74 1.911-3.278 1.151-6.215 1.7-8.589 1.606Z"/></svg>
